images/logo/resources-polka.svg

<svg width="187" height="38" viewBox="0 0 187 38" fill="none" xmlns="http://www.w3.org/2000/svg">
<path fill-rule="evenodd" clip-rule="evenodd" d="M67.1282 6.68119C64.0143 3.61779 59.782 1.72325 55.1721 1.72325C50.5631 1.72325 46.3317 3.6187 43.2161 6.68119C40.0269 9.81771 38.0542 14.1592 38.0542 18.961C38.0542 23.7628 40.0278 28.1042 43.2197 31.2408C46.3335 34.3042 50.564 36.1987 55.1757 36.1987C59.7839 36.1987 64.0152 34.3032 67.1318 31.2408C70.3219 28.1033 72.2955 23.7619 72.2955 18.961C72.2955 14.1592 70.3219 9.81771 67.13 6.68119H67.1282ZM55.1721 1.17989C60.3976 1.17989 65.0701 3.20531 68.3991 6.47992C71.6537 9.67871 73.6672 14.0924 73.6672 18.961C73.6672 23.8296 71.6518 28.2432 68.3982 31.4438C65.0683 34.7166 60.3957 36.7421 55.1712 36.7421C49.9458 36.7421 45.2732 34.7166 41.9442 31.4438C38.6897 28.2432 36.677 23.8296 36.677 18.961C36.677 14.0924 38.6897 9.67871 41.9442 6.47992C45.275 3.20531 49.9467 1.17989 55.1721 1.17989ZM55.1721 17.5439C55.9646 17.5439 56.6065 18.1784 56.6065 18.961C56.6065 19.7435 55.9646 20.378 55.1721 20.378C54.3823 20.378 53.7405 19.7435 53.7405 18.961C53.7405 18.1784 54.3805 17.5439 55.1721 17.5439ZM159.045 26.2539H178.424L168.735 2.78831L159.044 26.2539H159.045ZM180.164 36.0254H182.457L178.647 26.7973H158.818L155.006 36.0254H157.986V36.5688H151.15V36.0254H154.355L158.166 26.7973H155.817V26.2539H158.391L169.044 0.461426L183.73 36.0254H187V36.5688H180.164V36.0254ZM120.759 14.7278H123.141C124.108 14.7278 125.22 14.7278 126.173 14.1772C126.685 13.8794 127.174 13.4353 127.621 12.9073C128.128 12.308 128.574 11.6003 128.937 10.8746C129.289 10.1769 129.555 9.47562 129.773 8.79326C129.99 8.1091 130.165 7.42583 130.323 6.78319L130.374 6.57379C130.67 5.36792 130.927 4.3173 131.494 3.50497C131.787 3.08526 132.161 2.73055 132.578 2.43991C133.056 2.10866 133.596 1.85864 134.141 1.69076C134.693 1.52197 135.241 1.43803 135.787 1.39561H135.789C136.308 1.3559 136.789 1.3559 137.27 1.3559V1.89926C136.85 1.89926 136.43 1.89926 136.048 1.92814C135.69 1.95522 135.331 2.01118 134.975 2.12039C134.567 2.24676 134.151 2.44172 133.766 2.70708C133.403 2.96251 133.072 3.27571 132.81 3.65029C132.275 4.41749 132.02 5.44645 131.733 6.62614L131.681 6.83554C131.524 7.47277 131.35 8.15333 131.125 8.86096C130.898 9.5704 130.628 10.2889 130.281 10.9821C129.909 11.724 129.446 12.4533 128.915 13.0824C128.428 13.6573 127.884 14.1474 127.299 14.485C127.14 14.5753 126.978 14.6565 126.816 14.7287H128.193C129.834 14.7287 131.72 14.7287 133.395 15.9833C134.121 16.5294 134.798 17.3246 135.407 18.2615C136.079 19.2949 136.667 20.4963 137.137 21.7157C137.582 22.8674 137.927 24.0534 138.212 25.2205C138.502 26.4029 138.723 27.5239 138.923 28.5736L138.988 28.922C139.36 30.8915 139.684 32.6073 140.377 33.8989C140.699 34.4964 141.103 35.0064 141.524 35.4288C142.044 35.9487 142.587 36.3278 143.035 36.5688C143.385 36.7583 143.65 36.8468 143.87 36.8874C144.045 36.9181 144.25 36.9181 144.453 36.9181V37.4614C144.102 37.4614 143.75 37.4614 143.296 37.3784C142.884 37.3035 142.439 37.1618 141.929 36.8883C141.421 36.6157 140.813 36.1933 140.248 35.6283C139.803 35.1833 139.376 34.6444 139.037 34.0108C138.322 32.684 137.995 30.951 137.621 28.9626L137.554 28.6142C137.35 27.5401 137.127 26.3992 136.85 25.271C136.571 24.1292 136.229 22.9577 135.781 21.7978C135.314 20.5829 134.737 19.3987 134.084 18.395C133.503 17.5015 132.861 16.7469 132.185 16.2379C130.896 15.2721 129.452 15.2721 128.195 15.2721H124.279V15.254C123.889 15.2721 123.508 15.2721 123.141 15.2721H120.759V36.0281H123.491V36.5715H116.654V36.0281H119.386V1.89835H116.654V1.35319H123.49V1.89655H120.759V14.7278ZM104.166 36.0254H106.462L92.7361 2.78831L79.0098 36.0254H81.992V36.5688H75.1561V36.0254H78.3607L93.0502 0.461426L107.736 36.0254H111.006V36.5688H104.17V36.0254H104.166ZM29.6977 1.89655V36.0254H32.4302V36.5688H25.5943V36.0254H28.3223V1.89655H4.10518V36.2971H2.73255V1.89655H0V1.35319H32.4293V1.89655H29.6977Z" fill="#BDBDBD"/>
</svg>

<svg width="187" height="38" fill="none" xmlns="http://www.w3.org/2000/svg"><path fill-rule="evenodd" clip-rule="evenodd" d="M67.128 6.681c-3.114-3.063-7.346-4.958-11.956-4.958-4.609 0-8.84 1.896-11.956 4.958-3.19 3.137-5.162 7.478-5.162 12.28s1.974 9.143 5.166 12.28c3.114 3.063 7.344 4.958 11.956 4.958 4.608 0 8.84-1.896 11.956-4.958 3.19-3.138 5.163-7.48 5.163-12.28 0-4.802-1.973-9.143-5.165-12.28h-.002ZM55.172 1.18c5.226 0 9.898 2.025 13.227 5.3 3.255 3.199 5.268 7.612 5.268 12.481s-2.015 9.282-5.269 12.483c-3.33 3.273-8.002 5.298-13.227 5.298s-9.898-2.025-13.227-5.298c-3.254-3.2-5.267-7.614-5.267-12.483 0-4.869 2.013-9.282 5.267-12.481 3.331-3.275 8.003-5.3 13.228-5.3Zm0 16.364c.793 0 1.434.634 1.434 1.417s-.641 1.417-1.434 1.417c-.79 0-1.431-.634-1.431-1.417s.64-1.417 1.431-1.417Zm103.873 8.71h19.379l-9.689-23.466-9.691 23.466h.001Zm21.119 9.771h2.293l-3.81-9.228h-19.829l-3.812 9.228h2.98v.544h-6.836v-.544h3.205l3.811-9.228h-2.349v-.543h2.574L169.044.46l14.686 35.564H187v.544h-6.836v-.544Zm-59.405-21.297h2.382c.967 0 2.079 0 3.032-.55.512-.299 1.001-.743 1.448-1.27.507-.6.953-1.308 1.316-2.033.352-.698.618-1.4.836-2.082a31.5 31.5 0 0 0 .55-2.01l.051-.21c.296-1.205.553-2.256 1.12-3.068.293-.42.667-.774 1.084-1.065a5.714 5.714 0 0 1 1.563-.75 7.58 7.58 0 0 1 1.646-.294h.002c.519-.04 1-.04 1.481-.04v.543c-.42 0-.84 0-1.222.03a4.893 4.893 0 0 0-1.073.191 4.48 4.48 0 0 0-1.209.587 3.889 3.889 0 0 0-.956.943c-.535.767-.79 1.796-1.077 2.976l-.052.21a31.308 31.308 0 0 1-.556 2.025c-.227.71-.497 1.428-.844 2.121a10.778 10.778 0 0 1-1.366 2.1c-.487.575-1.031 1.065-1.616 1.403-.159.09-.321.171-.483.244h1.377c1.641 0 3.527 0 5.202 1.254.726.546 1.403 1.342 2.012 2.279.672 1.033 1.26 2.234 1.73 3.454.445 1.151.79 2.337 1.075 3.505.29 1.182.511 2.303.711 3.353l.065.348c.372 1.97.696 3.685 1.389 4.977a6.643 6.643 0 0 0 1.147 1.53c.52.52 1.063.899 1.511 1.14.35.19.615.278.835.318.175.031.38.031.583.031v.543c-.351 0-.703 0-1.157-.083a4.567 4.567 0 0 1-1.367-.49 7.356 7.356 0 0 1-1.681-1.26 6.907 6.907 0 0 1-1.211-1.617c-.715-1.327-1.042-3.06-1.416-5.048l-.067-.349a64.537 64.537 0 0 0-.704-3.343 28.206 28.206 0 0 0-1.069-3.473c-.467-1.215-1.044-2.4-1.697-3.403-.581-.893-1.223-1.648-1.899-2.157-1.289-.966-2.733-.966-3.99-.966h-3.916v-.018c-.39.018-.771.018-1.138.018h-2.382v20.756h2.732v.544h-6.837v-.544h2.732V1.898h-2.732v-.545h6.836v.544h-2.731v12.83Zm-16.593 21.297h2.296L92.736 2.788 79.01 36.025h2.982v.544h-6.836v-.544h3.205L93.05.461l14.685 35.564h3.27v.544h-6.836v-.544h-.004ZM29.698 1.897v34.128h2.732v.544h-6.836v-.544h2.728V1.897H4.105v34.4H2.733v-34.4H0v-.544h32.43v.544h-2.732Z" fill="#BDBDBD"/></svg>
